!!!OTL: IM WALD UND AUF DER HEIDE
!!!ARE: Europa, Mitteleuropa, Deutschland
!!!SCT: B0589
!!!YEM: Copyright 1995, estate of Helmut Schaffrath.
**kern
*ICvox
*Ivox
*M6/8
*k[]
*C:
{8G
=1
4G
8G
4G
8G
=2
4.G
4E}
{8G
=3
4c
8c
8c
8B
8c
=4
4e
8d
8c
8B}
{8A
=5
4G
8G
8G
8A
8B
=6
2c
8r}
{8G
=7
4G
8G
8G
8A
8B
=8
2c
8r}
{8G
=9
4G
8G
4G
8G
=10
4G
8e
4c}
{8B
=11
4A
8A
4A
8A
=12
4A
8f
4d}
{8c
=13
4B
8B
8B
8c
8d
=14
4.e
8f
8e}
{8d
=15
4c
8c
4B
8B
=16
4.c
4r}
{8G
=17
8G
8E
8G
4c
8c
=18
8c
8G
8c
4e}
{8e
=19
4d
8d
4B
8B
=20
2c
8r}
{8G
=21
8G
8E
8G
4c
8c
=22
8c
8G
8c
4e}
{8e
=23
4d
8d
4B
8B
=24
2c
8r}
==
!!!AGN: Staende -, Jaeger - Lied
!!!ONB: ESAC (Essen Associative Code) Database: BOEHME
!!!AMT: compound duple
!!!AIN: vox
!!!EED: Helmut Schaffrath
!!!EEV: 1.0
*-
